X:1
T:John Riley, the Shepherd
C:Greg Canote
C:source - Art Stamper
L:1/8
M:4/4
I:linebreak $
K:G
V:1 treble
V:1
 Bd |: "G" e2 d2 e2 g2 | edBA G2 A2 | B3 c BAGD | "Em"E3 G E2 Bd |$
 "G" e2 d2 e2 g2 | edBA G2 A2 | B3 c BAGB |1  "D"A3 B A2 Bd :|2 "D"A3 B A4 |:$
"G" B3 c BAGD |"C" E2 ED E2 G2 |"G" B3 c BAGD |"C" E2 ED E2 G2 |$
  "G" B3 c BAGD | "C"E2 ED E2 Bd | "G" e2 d2 BAGB |1 "D"A3 B A4 :|2 "D"A8 |]
